X:218
T:Dunrobin Castle
R:Slow Strathspey
B:The Athole Collection
M:C
L:1/8
Q:1/4=140
K:B_
A|B<F F>D B<F F>d|B<F F>D B,/C/D/E/ ~F2|B<G G>A B<GG<A|
B>A G<D C/D/E/F/ G>A|B<F F>D B<FF<d|B<F F>D B,/C/D/E/ ~F2|
f>de>c d>B d/c/B/A/|B>F G/F/E/D/ C/D/E/F/ G||A|B/c/d/e/ f>b d>bf>b|
f>Bd>c B/c/d/e/ f2|c/d/e/f/ g>b d>bg>b|b>ag>d c/d/e/f/ ~g2|
B/c/d/e/ f>b d>bf>b|f>Bd>c B/c/d/e/ f2|d>f e/d/c/B/ d/c/B/A/ c/B/A/G/|
B/A/G/F/ G/F/E/D/ C/D/E/F/ G||

